X:320
T: Sir Roger de Coverly
R: slipjig
S:Thomas Hardy collection
O:England; Dorset
Z:PJHeadford 2011
M:9/8
L:1/8
Q:3/8=110
M:9/8
K:G
|:G2G G2e dBG|A2A ABG FED|G2G G2e def|g2G GAG FED:|
|:dBd ece dBG|E2A ABG FED|dBd ece def|g2G GAG FED:|
|:gag f2e dBG|E2A ABG FED|gag f2e def|g2G GAG FED:|
|:dcB cBA BAG|E2A ABG FED|dcB cBA Bcd|g2G GAG FED:|

